public/logos/javascript.svg

<svg width="512" height="512" viewBox="0 0 512 512" fill="none" xmlns="http://www.w3.org/2000/svg">
<g clip-path="url(#clip0_237_153)">
<path d="M435.2 0H76.8C34.3845 0 0 34.3845 0 76.8V435.2C0 477.615 34.3845 512 76.8 512H435.2C477.615 512 512 477.615 512 435.2V76.8C512 34.3845 477.615 0 435.2 0Z" fill="#F7DF1E"/>
<path d="M324 370C334 387 348 399 371 399C391 399 404 389 404 375C404 359 391 353 369 343L357 338C322 323 299 305 299 266C299 230 326 202 369 202C400 202 422 213 437 241L400 265C392 250 383 244 369 244C355 244 346 253 346 265C346 279 355 285 376 294L388 299C429 317 452 334 452 375C452 418 418 442 372 442C327 442 298 421 284 393L324 370ZM154 374C162 387 168 399 185 399C201 399 211 393 211 369V203H259V367C259 417 230 439 187 439C148 439 126 419 115 395L154 374Z" fill="black"/>
</g>
<defs>
<clipPath id="clip0_237_153">
<rect width="512" height="512" fill="white"/>
</clipPath>
</defs>
</svg>

<svg xmlns="http://www.w3.org/2000/svg" aria-label="JavaScript" viewBox="0 0 512 512" id="javascript">
  <rect width="512" height="512" fill="#f7df1e" rx="15%"></rect>
  <path d="m324,370c10,17 24,29 47,29 20,0 33,-10 33,-24 0,-16 -13,-22 -35,-32l-12,-5c-35,-15 -58,-33 -58,-72 0,-36 27,-64 70,-64 31,0 53,11 68,39l-37,24c-8,-15 -17,-21 -31,-21 -14,0 -23,9 -23,21 0,14 9,20 30,29l12,5c41,18 64,35 64,76 0,43 -34,67 -80,67 -45,0 -74,-21 -88,-49zm-170,4c8,13 14,25 31,25 16,0 26,-6 26,-30V203h48v164c0,50 -29,72 -72,72 -39,0 -61,-20 -72,-44z"></path>
</svg>
